Numix-Light-GalliumOS/16/status/renamed-pidgin.svg

<?xml version="1.0" encoding="UTF-8" standalone="no"?>
<svg
   xmlns:dc="http://purl.org/dc/elements/1.1/"
   xmlns:cc="http://creativecommons.org/ns#"
   xmlns:rdf="http://www.w3.org/1999/02/22-rdf-syntax-ns#"
   xmlns:svg="http://www.w3.org/2000/svg"
   xmlns="http://www.w3.org/2000/svg"
   xmlns:sodipodi="http://sodipodi.sourceforge.net/DTD/sodipodi-0.dtd"
   xmlns:inkscape="http://www.inkscape.org/namespaces/inkscape"
   width="16"
   viewBox="0 0 16 16"
   height="16"
   id="svg2"
   version="1.1"
   inkscape:version="0.91 r"
   sodipodi:docname="renamed-pidgin.svg">
  <metadata
     id="metadata12">
    <rdf:RDF>
      <cc:Work
         rdf:about="">
        <dc:format>image/svg+xml</dc:format>
        <dc:type
           rdf:resource="http://purl.org/dc/dcmitype/StillImage" />
        <dc:title />
      </cc:Work>
    </rdf:RDF>
  </metadata>
  <sodipodi:namedview
     pagecolor="#ffffff"
     bordercolor="#666666"
     borderopacity="1"
     objecttolerance="10"
     gridtolerance="10"
     guidetolerance="10"
     inkscape:pageopacity="0"
     inkscape:pageshadow="2"
     inkscape:window-width="1366"
     inkscape:window-height="747"
     id="namedview10"
     showgrid="true"
     inkscape:zoom="11.513031"
     inkscape:cx="1.7449575"
     inkscape:cy="9.4252751"
     inkscape:window-x="0"
     inkscape:window-y="21"
     inkscape:window-maximized="1"
     inkscape:current-layer="svg2">
    <inkscape:grid
       type="xygrid"
       id="grid2990" />
  </sodipodi:namedview>
  <defs
     id="defs4" />
  <path
     style="fill:#353535;fill-opacity:1;fill-rule:evenodd"
     d="M 8,2.18184 C 4.7770114,2.18184 2.18184,4.7770114 2.18184,8 c 0,3.222989 2.5951714,5.81816 5.81816,5.81816 3.222989,0 5.81816,-2.595171 5.81816,-5.81816 C 13.81816,4.7770114 11.222989,2.18184 8,2.18184 Z M 5.4318278,4.6818306 c 0.4128228,-0.038604 0.8325054,0.2967684 1.0454506,0.8181788 0.012937,0.029881 0.034611,0.058918 0.045454,0.090909 0.056171,0.1657416 0.086766,0.3393955 0.090909,0.4999982 0.00188,0.079673 -0.012502,0.1521288 -0.022727,0.2272718 -0.01997,0.1518562 -0.049248,0.2870805 -0.113636,0.4090894 C 6.4124094,6.8477165 6.3085093,6.9477746 6.2045522,7.022731 6.1570472,7.055551 6.1001378,7.092781 6.0454619,7.113641 5.9847109,7.136821 5.9259637,7.153201 5.8636444,7.159091 5.7290751,7.171671 5.6083539,7.149691 5.4772822,7.090911 5.4166704,7.06569 5.3755278,7.039057 5.3181919,7.000004 5.1972787,6.9187554 5.0955846,6.8150602 5.0000112,6.6818231 4.9576049,6.6234259 4.8991886,6.5672841 4.8636481,6.5000056 c -0.00307,-0.00592 0.00301,-0.016749 0,-0.022727 C 4.8258278,6.4036359 4.8008251,6.3328773 4.7727394,6.2500066 4.7603467,6.2134458 4.7590183,6.1727621 4.7500122,6.1363706 4.7454686,6.1264512 4.731664,6.1237171 4.727285,6.1136434 4.5714542,5.4973407 4.7749212,4.8998593 5.2272831,4.727285 5.2880342,4.7041087 5.3691228,4.6876944 5.4318278,4.6818306 Z M 9.977265,4.9545569 c 0.368464,-0.054932 0.759761,0.2149701 0.954542,0.6590884 0.05565,0.126891 0.102158,0.260795 0.113636,0.3863622 0.0075,0.09947 -0.0049,0.204376 -0.02273,0.2954534 -0.01272,0.066721 -0.04241,0.1226781 -0.06818,0.1818175 -0.0027,0.00628 0.0028,0.016547 0,0.022727 -0.02542,0.054671 -0.05462,0.1135501 -0.09091,0.1590903 -0.01319,0.016251 -0.0309,0.030608 -0.04546,0.045454 -0.02081,0.021203 -0.04468,0.027317 -0.06818,0.045454 -0.04241,0.03345 -0.08512,0.069128 -0.136363,0.090909 -0.09309,0.039566 -0.195941,0.051093 -0.295454,0.045454 -0.0071,-6.06e-4 -0.01561,8.173e-4 -0.02273,0 -0.100184,-0.00895 -0.199367,-0.041951 -0.295454,-0.090909 -0.005,-0.00264 -0.01779,0.00274 -0.02273,0 C 9.875082,6.7402257 9.789492,6.6625201 9.704526,6.5681858 9.619156,6.4742588 9.555633,6.3541689 9.499981,6.227278 9.443471,6.0983822 9.397473,5.9694681 9.386345,5.8409158 c -0.0072,-0.083181 -0.01071,-0.1729239 0,-0.2499991 0.0018,0.015488 0.02038,0.029924 0.02273,0.045454 0.03222,-0.2840129 0.168653,-0.5341726 0.409089,-0.6363612 0.05013,-0.021305 0.106453,-0.037607 0.15909,-0.045454 z m 0.249999,0.4090894 c -0.229374,0 -0.431816,0.1795628 -0.431816,0.4090893 0,0.2295266 0.202442,0.4318166 0.431816,0.4318166 0.229375,0 0.40909,-0.20229 0.40909,-0.4318166 0,-0.2295265 -0.179715,-0.4090893 -0.40909,-0.4090893 z M 5.81819,5.5000094 C 5.7463178,5.4960548 5.6629141,5.5195759 5.5909181,5.5454638 5.3029341,5.6490151 5.1691862,5.9620226 5.2727375,6.2500066 5.3762888,6.5379906 5.6892963,6.6944657 5.9772803,6.5909144 6.2652643,6.4873631 6.3990123,6.1516284 6.2954609,5.8636444 6.2177974,5.6476564 6.0338066,5.5118732 5.81819,5.5000094 Z m 4.454529,0.249999 c 0.05734,0 0.113636,0.056254 0.113636,0.113636 0,0.057382 -0.05629,0.090909 -0.113636,0.090909 -0.05734,0 -0.09091,-0.033527 -0.09091,-0.090909 0,-0.057382 0.03356,-0.113636 0.09091,-0.113636 z M 5.8636444,6.0000075 c 0.071996,-0.025888 0.1332025,-0.00381 0.1590903,0.068182 0.025888,0.071996 0.00381,0.1559296 -0.068182,0.1818175 C 5.8825567,6.275895 5.7986231,6.231094 5.7727352,6.159098 5.7468472,6.087102 5.7916482,6.0258955 5.8636442,6.0000077 Z M 7.954546,7.159094 c 0.0226,-6.76e-4 0.0286,0.02099 0.04545,0.02273 0.01369,-0.0016 0.02781,-0.02327 0.04545,-0.02273 0.128089,0.0038 0.367163,0.08687 0.772725,0.454544 C 9.358923,8.10387 9.38635,8.545453 9.38635,8.545453 9.29973,8.588943 9.202258,8.664867 9.113624,8.749997 8.871443,9.602491 8.6644,9.931811 7.999992,9.931811 7.28792,9.931811 6.9529654,9.558358 6.8636326,8.72727 6.7839856,8.65534 6.6951495,8.586537 6.6136336,8.545453 c 0,0 0.027427,-0.44158 0.5681794,-0.931815 C 7.587378,7.245962 7.826451,7.162923 7.954538,7.159094 Z"
     id="rect16"
     inkscape:connector-curvature="0" />
</svg>

<svg xmlns="http://www.w3.org/2000/svg" viewBox="0 0 16 16">
 <path d="m 8 2.182 c -3.223 0 -5.818 2.595 -5.818 5.818 c 0 3.223 2.595 5.818 5.818 5.818 3.223 0 5.818 -2.595 5.818 -5.818 c 0 -3.223 -2.595 -5.818 -5.818 -5.818 m -2.568 2.5 c 0.413 -0.039 0.833 0.297 1.045 0.818 0.013 0.03 0.035 0.059 0.045 0.091 0.056 0.166 0.087 0.339 0.091 0.5 0.002 0.08 -0.013 0.152 -0.023 0.227 -0.02 0.152 -0.049 0.287 -0.114 0.409 c -0.065 0.12 -0.169 0.22 -0.273 0.295 -0.048 0.033 -0.104 0.07 -0.159 0.091 -0.061 0.023 -0.119 0.04 -0.182 0.045 -0.135 0.013 -0.255 -0.009 -0.386 -0.068 -0.061 -0.025 -0.102 -0.052 -0.159 -0.091 -0.121 -0.081 -0.223 -0.185 -0.318 -0.318 -0.042 -0.058 -0.101 -0.115 -0.136 -0.182 c -0.003 -0.006 0.003 -0.017 0 -0.023 c -0.038 -0.074 -0.063 -0.144 -0.091 -0.227 -0.012 -0.037 -0.014 -0.077 -0.023 -0.114 -0.005 -0.01 -0.018 -0.013 -0.023 -0.023 -0.156 -0.616 0.048 -1.214 0.5 -1.386 0.061 -0.023 0.142 -0.04 0.205 -0.045 m 4.545 0.273 c 0.368 -0.055 0.76 0.215 0.955 0.659 0.056 0.127 0.102 0.261 0.114 0.386 0.008 0.099 -0.005 0.204 -0.023 0.295 -0.013 0.067 -0.042 0.123 -0.068 0.182 -0.003 0.006 0.003 0.017 0 0.023 -0.025 0.055 -0.055 0.114 -0.091 0.159 -0.013 0.016 -0.031 0.031 -0.045 0.045 -0.021 0.021 -0.045 0.027 -0.068 0.045 -0.042 0.033 -0.085 0.069 -0.136 0.091 -0.093 0.04 -0.196 0.051 -0.295 0.045 -0.007 -0.001 -0.016 0.001 -0.023 0 -0.1 -0.009 -0.199 -0.042 -0.295 -0.091 -0.005 -0.003 -0.018 0.003 -0.023 0 c -0.102 -0.055 -0.188 -0.133 -0.273 -0.227 -0.085 -0.094 -0.149 -0.214 -0.205 -0.341 -0.057 -0.129 -0.103 -0.258 -0.114 -0.386 c -0.007 -0.083 -0.011 -0.173 0 -0.25 0.002 0.015 0.02 0.03 0.023 0.045 0.032 -0.284 0.169 -0.534 0.409 -0.636 0.05 -0.021 0.106 -0.038 0.159 -0.045 z m 0.25 0.409 c -0.229 0 -0.432 0.18 -0.432 0.409 0 0.23 0.202 0.432 0.432 0.432 0.229 0 0.409 -0.202 0.409 -0.432 0 -0.23 -0.18 -0.409 -0.409 -0.409 z m -4.409 0.136 c -0.072 -0.004 -0.155 0.02 -0.227 0.045 -0.288 0.104 -0.422 0.417 -0.318 0.705 0.104 0.288 0.417 0.444 0.705 0.341 0.288 -0.104 0.422 -0.439 0.318 -0.727 -0.078 -0.216 -0.262 -0.352 -0.477 -0.364 m 4.455 0.25 c 0.057 0 0.114 0.056 0.114 0.114 0 0.057 -0.056 0.091 -0.114 0.091 -0.057 0 -0.091 -0.034 -0.091 -0.091 0 -0.057 0.034 -0.114 0.091 -0.114 z m -4.409 0.25 c 0.072 -0.026 0.133 -0.004 0.159 0.068 0.026 0.072 0.004 0.156 -0.068 0.182 c -0.072 0.026 -0.156 -0.019 -0.182 -0.091 -0.026 -0.072 0.019 -0.133 0.091 -0.159 m 2.091 1.159 c 0.023 -0.001 0.029 0.021 0.045 0.023 0.014 -0.002 0.028 -0.023 0.045 -0.023 0.128 0.004 0.367 0.087 0.773 0.455 c 0.541 0.49 0.568 0.932 0.568 0.932 -0.087 0.043 -0.184 0.119 -0.273 0.205 -0.242 0.852 -0.449 1.182 -1.114 1.182 -0.712 0 -1.047 -0.373 -1.136 -1.205 -0.08 -0.072 -0.168 -0.141 -0.25 -0.182 c 0 0 0.027 -0.442 0.568 -0.932 c 0.406 -0.368 0.645 -0.451 0.773 -0.455" style="fill:#353535;fill-opacity:1;fill-rule:evenodd"/>
</svg>
